Newaita-dark/devices/48/multimedia-player.svg

<svg height="48pt" viewBox="0 0 48 48" width="48pt" xmlns="http://www.w3.org/2000/svg" xmlns:xlink="http://www.w3.org/1999/xlink"><linearGradient id="a" gradientUnits="userSpaceOnUse" x1="23.81478" x2="23.81478" y1="42.0509045" y2="44.03547050005"><stop offset="0" stop-opacity=".27451"/><stop offset="1" stop-opacity="0"/></linearGradient><linearGradient id="b"><stop offset="0" stop-opacity=".313725"/><stop offset=".222222" stop-opacity=".27451"/><stop offset="1" stop-opacity="0"/></linearGradient><radialGradient id="c" cx="450.908936" cy="189.579361" gradientTransform="matrix(.00000026 -.117199 -.210958 -.00000015 73.234562 95.392999)" gradientUnits="userSpaceOnUse" r="21.166656" xlink:href="#b"/><radialGradient id="d" cx="450.908936" cy="189.579361" gradientTransform="matrix(-.00000026 .117199 .210958 .00000015 -25.605013 -11.291218)" gradientUnits="userSpaceOnUse" r="21.166656" xlink:href="#b"/><radialGradient id="e" cx="450.908936" cy="189.579361" gradientTransform="matrix(-.00000026 -.117199 .210958 -.00000015 -25.605013 95.392999)" gradientUnits="userSpaceOnUse" r="21.166656" xlink:href="#b"/><radialGradient id="f" cx="450.908936" cy="189.579361" gradientTransform="matrix(.00000026 .117199 -.210958 .00000015 73.234559 -11.291219)" gradientUnits="userSpaceOnUse" r="21.166656" xlink:href="#b"/><linearGradient id="g" gradientTransform="matrix(.113024 0 0 .326118 -8.78102 50.462022)" gradientUnits="userSpaceOnUse" x1="306.916656" x2="305.954559" y1="-25.791676" y2="-141.414581"><stop offset="0" stop-color="#616161"/><stop offset="1" stop-color="#757575"/></linearGradient><linearGradient id="h" gradientUnits="userSpaceOnUse" x1="254" x2="254" y1="170" y2="-147.5"><stop offset="0" stop-color="#424242"/><stop offset="1" stop-color="#616161"/></linearGradient><linearGradient id="i" gradientUnits="userSpaceOnUse" x1="254" x2="254" y1="85.333336" y2="-84"><stop offset="0" stop-color="#42a5f5"/><stop offset="1" stop-color="#64b5f6"/></linearGradient><path d="m13.890625 42.050781h19.847656v1.984375h-19.847656zm0 0" fill="url(#a)"/><path d="m33.738281 42.050781h3.96875v-1.984375h-3.96875zm0 0" fill="url(#c)"/><path d="m13.890625 42.050781h-3.96875v1.984375h3.96875zm0 0" fill="url(#d)"/><path d="m13.890625 42.050781h-3.96875v-1.984375h3.96875zm0 0" fill="url(#e)"/><path d="m33.738281 42.050781h3.96875v1.984375h-3.96875zm0 0" fill="url(#f)"/><path d="m11.90625 4.34375h23.816406c1.09375 0 1.984375.890625 1.984375 1.984375v33.738281c0 1.097656-.890625 1.984375-1.984375 1.984375h-23.816406c-1.09375 0-1.984375-.886719-1.984375-1.984375v-33.738281c0-1.09375.890625-1.984375 1.984375-1.984375zm0 0" fill="url(#g)"/><path d="m11.90625 42.050781c-1.097656 0-1.984375-.886719-1.984375-1.984375v-.25c0 1.101563.886719 1.988282 1.984375 1.988282h23.816406c1.097656 0 1.984375-.886719 1.984375-1.988282v.25c0 1.097656-.886719 1.984375-1.984375 1.984375zm0 0" fill-opacity=".196078"/><path d="m11.90625 4.34375c-1.097656 0-1.984375.886719-1.984375 1.984375v.25c0-1.101563.886719-1.988281 1.984375-1.984375h23.816406c1.097656-.003906 1.984375.882812 1.984375 1.984375v-.25c0-1.097656-.886719-1.984375-1.984375-1.984375zm0 0" fill="#e6e6e6" fill-opacity=".937255"/><path d="m11.90625 4.203125c-1.171875 0-2.125.949219-2.125 2.125v33.738281c0 1.175782.953125 2.125 2.125 2.125h23.816406c1.175782 0 2.125-.949218 2.125-2.125v-33.738281c0-1.175781-.949218-2.125-2.125-2.125zm0 .28125h23.816406c1.023438 0 1.84375.820313 1.84375 1.84375v33.738281c0 1.023438-.820312 1.84375-1.84375 1.84375h-23.816406c-1.023438 0-1.84375-.820312-1.84375-1.84375v-33.738281c0-1.023437.820312-1.84375 1.84375-1.84375zm0 0" fill="#212121"/><g stroke="#212121" stroke-linecap="round" stroke-width="3" transform="matrix(.093759 0 0 .093759 0 20.158175)"><path d="m137.570196-147.506445h232.852764c5.832776 0 10.582322 4.749546 10.582322 10.582322v296.346701c0 5.832776-4.749546 10.582323-10.582322 10.582323h-232.852764c-5.832776 0-10.582323-4.749547-10.582323-10.582323v-296.346701c0-5.832776 4.749547-10.582322 10.582323-10.582322zm0 0" fill="url(#h)"/><path d="m211.646455-163.379929h84.700245c2.916388 0 5.291162 2.374773 5.291162 5.291161s-2.374774 5.291161-5.291162 5.291161h-84.700245c-2.916388 0-5.291161-2.374773-5.291161-5.291161s2.374773-5.291161 5.291161-5.291161zm0 0" fill="#616161" fill-opacity=".27451"/><path d="m232.852764 180.587223h42.329291c5.832776 0 10.582323 4.749547 10.582323 10.582323v21.164646c0 5.832776-4.749547 10.582322-10.582323 10.582322h-42.329291c-5.874439 0-10.582323-4.749546-10.582323-10.582322v-21.164646c0-5.832776 4.707884-10.582323 10.582323-10.582323zm0 0" fill="#616161" fill-opacity=".27451"/><path d="m212.104745-73.388523c-5.999427-.249976-10.99895 4.541233-10.99895 10.54066v127.029536c0 8.207549 8.957478 13.290397 15.998473 9.040803l105.823227-63.493937c6.874344-4.082943 6.874344-14.040325 0-18.123269l-105.823227-63.493936c-1.499857-.91658-3.24969-1.458195-4.999523-1.499857zm0 0" fill="url(#i)" stroke-linejoin="round"/></g></svg>

<?xml version="1.0" encoding="UTF-8"?>
<svg xmlns="http://www.w3.org/2000/svg" xmlns:xlink="http://www.w3.org/1999/xlink" width="48pt" height="48pt" viewBox="0 0 48 48" version="1.1">
<defs>
<linearGradient id="linear0" gradientUnits="userSpaceOnUse" x1="254" y1="233.5" x2="254" y2="254.666672" gradientTransform="matrix(0.093759,0,0,0.093759,-0.00000572259,20.158178)">
<stop offset="0" style="stop-color:rgb(0%,0%,0%);stop-opacity:0.27451;"/>
<stop offset="1" style="stop-color:rgb(0%,0%,0%);stop-opacity:0;"/>
</linearGradient>
<radialGradient id="radial0" gradientUnits="userSpaceOnUse" cx="450.908936" cy="189.579361" fx="450.908936" fy="189.579361" r="21.166656" gradientTransform="matrix(0.000000261256,-0.117199,-0.210958,-0.000000152308,73.234562,95.392999)">
<stop offset="0" style="stop-color:rgb(0%,0%,0%);stop-opacity:0.313725;"/>
<stop offset="0.222222" style="stop-color:rgb(0%,0%,0%);stop-opacity:0.27451;"/>
<stop offset="1" style="stop-color:rgb(0%,0%,0%);stop-opacity:0;"/>
</radialGradient>
<radialGradient id="radial1" gradientUnits="userSpaceOnUse" cx="450.908936" cy="189.579361" fx="450.908936" fy="189.579361" r="21.166656" gradientTransform="matrix(-0.000000261256,0.117199,0.210958,0.000000152308,-25.605013,-11.291218)">
<stop offset="0" style="stop-color:rgb(0%,0%,0%);stop-opacity:0.313725;"/>
<stop offset="0.222222" style="stop-color:rgb(0%,0%,0%);stop-opacity:0.27451;"/>
<stop offset="1" style="stop-color:rgb(0%,0%,0%);stop-opacity:0;"/>
</radialGradient>
<radialGradient id="radial2" gradientUnits="userSpaceOnUse" cx="450.908936" cy="189.579361" fx="450.908936" fy="189.579361" r="21.166656" gradientTransform="matrix(-0.000000261256,-0.117199,0.210958,-0.000000152308,-25.605013,95.392999)">
<stop offset="0" style="stop-color:rgb(0%,0%,0%);stop-opacity:0.313725;"/>
<stop offset="0.222222" style="stop-color:rgb(0%,0%,0%);stop-opacity:0.27451;"/>
<stop offset="1" style="stop-color:rgb(0%,0%,0%);stop-opacity:0;"/>
</radialGradient>
<radialGradient id="radial3" gradientUnits="userSpaceOnUse" cx="450.908936" cy="189.579361" fx="450.908936" fy="189.579361" r="21.166656" gradientTransform="matrix(0.000000261256,0.117199,-0.210958,0.000000152308,73.234559,-11.291219)">
<stop offset="0" style="stop-color:rgb(0%,0%,0%);stop-opacity:0.313725;"/>
<stop offset="0.222222" style="stop-color:rgb(0%,0%,0%);stop-opacity:0.27451;"/>
<stop offset="1" style="stop-color:rgb(0%,0%,0%);stop-opacity:0;"/>
</radialGradient>
<linearGradient id="linear1" gradientUnits="userSpaceOnUse" x1="306.916656" y1="-25.791676" x2="305.954559" y2="-141.414581" gradientTransform="matrix(0.113024,0,0,0.326118,-8.78102,50.462022)">
<stop offset="0" style="stop-color:rgb(38.039216%,38.039216%,38.039216%);stop-opacity:1;"/>
<stop offset="1" style="stop-color:rgb(45.882353%,45.882353%,45.882353%);stop-opacity:1;"/>
</linearGradient>
<linearGradient id="linear2" gradientUnits="userSpaceOnUse" x1="254" y1="170" x2="254" y2="-147.5" gradientTransform="matrix(1,0,0,1,0,0)">
<stop offset="0" style="stop-color:rgb(25.882353%,25.882353%,25.882353%);stop-opacity:1;"/>
<stop offset="1" style="stop-color:rgb(38.039216%,38.039216%,38.039216%);stop-opacity:1;"/>
</linearGradient>
<linearGradient id="linear3" gradientUnits="userSpaceOnUse" x1="254" y1="85.333336" x2="254" y2="-84" gradientTransform="matrix(1,0,0,1,0,0)">
<stop offset="0" style="stop-color:rgb(25.882353%,64.705882%,96.078431%);stop-opacity:1;"/>
<stop offset="1" style="stop-color:rgb(39.215686%,70.980392%,96.470588%);stop-opacity:1;"/>
</linearGradient>
</defs>
<g id="surface1">
<path style=" stroke:none;fill-rule:nonzero;fill:url(#linear0);" d="M 13.890625 42.050781 L 33.738281 42.050781 L 33.738281 44.035156 L 13.890625 44.035156 Z M 13.890625 42.050781 "/>
<path style=" stroke:none;fill-rule:nonzero;fill:url(#radial0);" d="M 33.738281 42.050781 L 37.707031 42.050781 L 37.707031 40.066406 L 33.738281 40.066406 Z M 33.738281 42.050781 "/>
<path style=" stroke:none;fill-rule:nonzero;fill:url(#radial1);" d="M 13.890625 42.050781 L 9.921875 42.050781 L 9.921875 44.035156 L 13.890625 44.035156 Z M 13.890625 42.050781 "/>
<path style=" stroke:none;fill-rule:nonzero;fill:url(#radial2);" d="M 13.890625 42.050781 L 9.921875 42.050781 L 9.921875 40.066406 L 13.890625 40.066406 Z M 13.890625 42.050781 "/>
<path style=" stroke:none;fill-rule:nonzero;fill:url(#radial3);" d="M 33.738281 42.050781 L 37.707031 42.050781 L 37.707031 44.035156 L 33.738281 44.035156 Z M 33.738281 42.050781 "/>
<path style=" stroke:none;fill-rule:nonzero;fill:url(#linear1);" d="M 11.90625 4.34375 L 35.722656 4.34375 C 36.816406 4.34375 37.707031 5.234375 37.707031 6.328125 L 37.707031 40.066406 C 37.707031 41.164062 36.816406 42.050781 35.722656 42.050781 L 11.90625 42.050781 C 10.8125 42.050781 9.921875 41.164062 9.921875 40.066406 L 9.921875 6.328125 C 9.921875 5.234375 10.8125 4.34375 11.90625 4.34375 Z M 11.90625 4.34375 "/>
<path style=" stroke:none;fill-rule:nonzero;fill:rgb(0%,0%,0%);fill-opacity:0.196078;" d="M 11.90625 42.050781 C 10.808594 42.050781 9.921875 41.164062 9.921875 40.066406 L 9.921875 39.816406 C 9.921875 40.917969 10.808594 41.804688 11.90625 41.804688 L 35.722656 41.804688 C 36.820312 41.804688 37.707031 40.917969 37.707031 39.816406 L 37.707031 40.066406 C 37.707031 41.164062 36.820312 42.050781 35.722656 42.050781 Z M 11.90625 42.050781 "/>
<path style=" stroke:none;fill-rule:nonzero;fill:rgb(90.196079%,90.196079%,90.196079%);fill-opacity:0.937255;" d="M 11.90625 4.34375 C 10.808594 4.34375 9.921875 5.230469 9.921875 6.328125 L 9.921875 6.578125 C 9.921875 5.476562 10.808594 4.589844 11.90625 4.59375 L 35.722656 4.59375 C 36.820312 4.589844 37.707031 5.476562 37.707031 6.578125 L 37.707031 6.328125 C 37.707031 5.230469 36.820312 4.34375 35.722656 4.34375 Z M 11.90625 4.34375 "/>
<path style=" stroke:none;fill-rule:nonzero;fill:rgb(12.941177%,12.941177%,12.941177%);fill-opacity:1;" d="M 11.90625 4.203125 C 10.734375 4.203125 9.78125 5.152344 9.78125 6.328125 L 9.78125 40.066406 C 9.78125 41.242188 10.734375 42.191406 11.90625 42.191406 L 35.722656 42.191406 C 36.898438 42.191406 37.847656 41.242188 37.847656 40.066406 L 37.847656 6.328125 C 37.847656 5.152344 36.898438 4.203125 35.722656 4.203125 Z M 11.90625 4.484375 L 35.722656 4.484375 C 36.746094 4.484375 37.566406 5.304688 37.566406 6.328125 L 37.566406 40.066406 C 37.566406 41.089844 36.746094 41.910156 35.722656 41.910156 L 11.90625 41.910156 C 10.882812 41.910156 10.0625 41.089844 10.0625 40.066406 L 10.0625 6.328125 C 10.0625 5.304688 10.882812 4.484375 11.90625 4.484375 Z M 11.90625 4.484375 "/>
<path style="fill-rule:nonzero;fill:url(#linear2);stroke-width:3;stroke-linecap:round;stroke-linejoin:miter;stroke:rgb(12.941177%,12.941177%,12.941177%);stroke-opacity:1;stroke-miterlimit:4;" d="M 137.570196 -147.506445 L 370.42296 -147.506445 C 376.255736 -147.506445 381.005282 -142.756899 381.005282 -136.924123 L 381.005282 159.422578 C 381.005282 165.255354 376.255736 170.004901 370.42296 170.004901 L 137.570196 170.004901 C 131.73742 170.004901 126.987873 165.255354 126.987873 159.422578 L 126.987873 -136.924123 C 126.987873 -142.756899 131.73742 -147.506445 137.570196 -147.506445 Z M 137.570196 -147.506445 " transform="matrix(0.093759,0,0,0.093759,0,20.158175)"/>
<path style="fill-rule:nonzero;fill:rgb(38.039216%,38.039216%,38.039216%);fill-opacity:0.27451;stroke-width:3;stroke-linecap:round;stroke-linejoin:miter;stroke:rgb(12.941177%,12.941177%,12.941177%);stroke-opacity:1;stroke-miterlimit:4;" d="M 211.646455 -163.379929 L 296.3467 -163.379929 C 299.263088 -163.379929 301.637862 -161.005156 301.637862 -158.088768 C 301.637862 -155.17238 299.263088 -152.797607 296.3467 -152.797607 L 211.646455 -152.797607 C 208.730067 -152.797607 206.355294 -155.17238 206.355294 -158.088768 C 206.355294 -161.005156 208.730067 -163.379929 211.646455 -163.379929 Z M 211.646455 -163.379929 " transform="matrix(0.093759,0,0,0.093759,0,20.158175)"/>
<path style="fill-rule:nonzero;fill:rgb(38.039216%,38.039216%,38.039216%);fill-opacity:0.27451;stroke-width:3;stroke-linecap:round;stroke-linejoin:miter;stroke:rgb(12.941177%,12.941177%,12.941177%);stroke-opacity:1;stroke-miterlimit:4;" d="M 232.852764 180.587223 L 275.182055 180.587223 C 281.014831 180.587223 285.764378 185.33677 285.764378 191.169546 L 285.764378 212.334192 C 285.764378 218.166968 281.014831 222.916514 275.182055 222.916514 L 232.852764 222.916514 C 226.978325 222.916514 222.270441 218.166968 222.270441 212.334192 L 222.270441 191.169546 C 222.270441 185.33677 226.978325 180.587223 232.852764 180.587223 Z M 232.852764 180.587223 " transform="matrix(0.093759,0,0,0.093759,0,20.158175)"/>
<path style="fill-rule:nonzero;fill:url(#linear3);stroke-width:3;stroke-linecap:round;stroke-linejoin:round;stroke:rgb(12.941177%,12.941177%,12.941177%);stroke-opacity:1;stroke-miterlimit:4;" d="M 212.104745 -73.388523 C 206.105318 -73.638499 201.105795 -68.84729 201.105795 -62.847863 L 201.105795 64.181673 C 201.105795 72.389222 210.063273 77.47207 217.104268 73.222476 L 322.927495 9.728539 C 329.801839 5.645596 329.801839 -4.311786 322.927495 -8.39473 L 217.104268 -71.888666 C 215.604411 -72.805246 213.854578 -73.346861 212.104745 -73.388523 Z M 212.104745 -73.388523 " transform="matrix(0.093759,0,0,0.093759,0,20.158175)"/>
</g>
</svg>
